build/img/icons/icon-insta.svg

<svg width="20" height="20" viewBox="0 0 20 20" fill="none" xmlns="http://www.w3.org/2000/svg">
<path d="M9.99731 6.66525C8.16111 6.66525 6.66262 8.16376 6.66262 10C6.66262 11.8362 8.16111 13.3348 9.99731 13.3348C11.8335 13.3348 13.332 11.8362 13.332 10C13.332 8.16376 11.8335 6.66525 9.99731 6.66525ZM19.9989 10C19.9989 8.61907 20.0114 7.25064 19.9338 5.87221C19.8563 4.27113 19.4911 2.85017 18.3203 1.67938C17.147 0.506085 15.7286 0.14334 14.1275 0.065788C12.7466 -0.0117644 11.3782 0.000744113 9.99981 0.000744113C8.61891 0.000744113 7.25051 -0.0117644 5.8721 0.065788C4.27105 0.14334 2.85012 0.508587 1.67935 1.67938C0.506076 2.85267 0.143338 4.27113 0.0657868 5.87221C-0.0117642 7.25314 0.000744099 8.62157 0.000744099 10C0.000744099 11.3784 -0.0117642 12.7494 0.0657868 14.1278C0.143338 15.7289 0.508578 17.1498 1.67935 18.3206C2.85262 19.4939 4.27105 19.8567 5.8721 19.9342C7.25301 20.0118 8.62141 19.9993 9.99981 19.9993C11.3807 19.9993 12.7491 20.0118 14.1275 19.9342C15.7286 19.8567 17.1495 19.4914 18.3203 18.3206C19.4936 17.1473 19.8563 15.7289 19.9338 14.1278C20.0139 12.7494 19.9989 11.3809 19.9989 10ZM9.99731 15.131C7.15795 15.131 4.86644 12.8394 4.86644 10C4.86644 7.16058 7.15795 4.86903 9.99731 4.86903C12.8367 4.86903 15.1282 7.16058 15.1282 10C15.1282 12.8394 12.8367 15.131 9.99731 15.131ZM15.3383 5.8572C14.6754 5.8572 14.14 5.32184 14.14 4.65889C14.14 3.99594 14.6754 3.46058 15.3383 3.46058C16.0013 3.46058 16.5366 3.99594 16.5366 4.65889C16.5368 4.81631 16.5059 4.97222 16.4458 5.1177C16.3856 5.26317 16.2974 5.39535 16.1861 5.50666C16.0748 5.61798 15.9426 5.70624 15.7971 5.76639C15.6516 5.82654 15.4957 5.8574 15.3383 5.8572Z"/>
</svg>

<svg width="20" height="20" fill="none" xmlns="http://www.w3.org/2000/svg"><path d="M9.997 6.665A3.342 3.342 0 006.663 10a3.342 3.342 0 003.334 3.335A3.342 3.342 0 0013.332 10a3.342 3.342 0 00-3.335-3.335zM20 10c0-1.38.012-2.75-.065-4.128-.078-1.6-.443-3.022-1.614-4.193C17.147.506 15.73.143 14.127.066 12.747-.012 11.378 0 10 0 8.619 0 7.25-.012 5.872.066 4.271.143 2.85.509 1.68 1.679.506 2.853.143 4.271.066 5.872-.012 7.253 0 8.622 0 10c0 1.378-.013 2.75.065 4.128.077 1.6.443 3.022 1.613 4.193 1.174 1.173 2.592 1.536 4.193 1.613C7.253 20.012 8.622 20 10 20c1.38 0 2.75.013 4.127-.065 1.602-.077 3.022-.443 4.193-1.613 1.174-1.174 1.536-2.592 1.614-4.193.08-1.379.065-2.747.065-4.128zM9.997 15.131A5.124 5.124 0 014.867 10a5.124 5.124 0 015.13-5.131A5.124 5.124 0 0115.128 10a5.124 5.124 0 01-5.13 5.131zm5.341-9.274A1.197 1.197 0 0114.14 4.66c0-.663.535-1.198 1.198-1.198a1.197 1.197 0 01.848 2.046 1.196 1.196 0 01-.848.35z"/></svg>
